icons/svg-withtext.svg

<svg xmlns="http://www.w3.org/2000/svg" xmlns:xlink="http://www.w3.org/1999/xlink" viewBox="0 0 283 282.92">
  <defs>
    <g id="d" fill="#fff">
      <path d="M5.482 31.319A18.27 18.27 0 0 1 .109 18.358C.109 8.232 8.322.024 18.443.024c10.126 0 18.339 8.208 18.339 18.334h-10.74c0-4.194-3.404-7.593-7.599-7.593a7.592 7.592 0 0 0-5.373 12.956h.005c1.375 1.38 2.52 1.779 5.368 2.231 5.066.527 9.648 2.054 12.966 5.372a18.275 18.275 0 0 1 5.373 12.962c0 10.126-8.213 18.339-18.339 18.339C8.322 62.625.109 54.412.109 44.286H10.85c0 4.194 3.399 7.598 7.593 7.598a7.601 7.601 0 0 0 7.599-7.598 7.574 7.574 0 0 0-2.221-5.363h-.005c-1.375-1.375-3.348-1.849-5.373-2.226v-.005c-4.91-.753-9.643-2.054-12.961-5.373zM73.452.024l-12.97 62.601h-10.74L36.782.024h10.74l7.6 36.663L62.712.024zM91.792 25.952h18.334v18.334h.005c0 10.127-8.213 18.34-18.339 18.34-10.127 0-18.334-8.213-18.334-18.34V18.359h-.005C73.453 8.233 81.665.025 91.792.025c10.121 0 18.334 8.208 18.334 18.334H99.385a7.599 7.599 0 0 0-7.593-7.594 7.596 7.596 0 0 0-7.594 7.594v25.927a7.593 7.593 0 0 0 15.187.005v-7.593h-7.593V25.952z" transform="matrix(2 0 0 2 40 158)"/>
    </g>
  </defs>
  <path id="c" fill="#000" d="M0 141.42h283v100c0 23.5-18 41.5-41.5 41.5h-200c-23.5 0-41.5-18-41.5-41.5z"/>
  <g stroke="#000" stroke-width="38.009" transform="translate(-8.5 -8.58)">
    <g id="b" transform="translate(150 150)">
      <path id="a" fill="#ffb13b" d="M-84.149-15.851a22.417 22.417 0 1 0 0 31.702H84.15a22.417 22.417 0 1 0 0-31.702z"/>
      <use width="100%" height="100%" transform="rotate(45)" xlink:href="#a"/>
      <use width="100%" height="100%" transform="rotate(90)" xlink:href="#a"/>
      <use width="100%" height="100%" transform="rotate(135)" xlink:href="#a"/>
    </g>
  </g>
  <use width="100%" height="100%" transform="translate(-8.5 -8.58)" xlink:href="#b"/>
  <use width="100%" height="100%" opacity=".85" xlink:href="#c"/>
  <use width="100%" height="100%" transform="translate(-8.5 -8.58)" xlink:href="#d"/>
</svg>

<svg xmlns="http://www.w3.org/2000/svg" xmlns:xlink="http://www.w3.org/1999/xlink" width="100%" height="100%" viewBox="0 0 300 300">
   <defs>
     <g id="SVG" fill="#ffffff" transform="scale(2) translate(20,79)">
        <path id="S" d="M 5.482,31.319 C2.163,28.001 0.109,23.419 0.109,18.358 C0.109,8.232 8.322,0.024 18.443,0.024 C28.569,0.024 36.782,8.232 36.782,18.358 L26.042,18.358 C26.042,14.164 22.638,10.765 18.443,10.765 C14.249,10.765 10.850,14.164 10.850,18.358 C10.850,20.453 11.701,22.351 13.070,23.721 L13.075,23.721 C14.450,25.101 15.595,25.500 18.443,25.952 L18.443,25.952 C23.509,26.479 28.091,28.006 31.409,31.324 L31.409,31.324 C34.728,34.643 36.782,39.225 36.782,44.286 C36.782,54.412 28.569,62.625 18.443,62.625 C8.322,62.625 0.109,54.412 0.109,44.286 L10.850,44.286 C10.850,48.480 14.249,51.884 18.443,51.884 C22.638,51.884 26.042,48.480 26.042,44.286 C26.042,42.191 25.191,40.298 23.821,38.923 L23.816,38.923 C22.441,37.548 20.468,37.074 18.443,36.697 L18.443,36.692 C13.533,35.939 8.800,34.638 5.482,31.319 L5.482,31.319 L5.482,31.319 Z"/>

        <path id="V" d="M 73.452,0.024 L60.482,62.625 L49.742,62.625 L36.782,0.024 L47.522,0.024 L55.122,36.687 L62.712,0.024 L73.452,0.024 Z"/>

        <path id="G" d="M 91.792,25.952 L110.126,25.952 L110.126,44.286 L110.131,44.286 C110.131,54.413 101.918,62.626 91.792,62.626 C81.665,62.626 73.458,54.413 73.458,44.286 L73.458,44.286 L73.458,18.359 L73.453,18.359 C73.453,8.233 81.665,0.025 91.792,0.025 C101.913,0.025 110.126,8.233 110.126,18.359 L99.385,18.359 C99.385,14.169 95.981,10.765 91.792,10.765 C87.597,10.765 84.198,14.169 84.198,18.359 L84.198,44.286 L84.198,44.286 C84.198,48.481 87.597,51.880 91.792,51.880 C95.981,51.880 99.380,48.481 99.385,44.291 L99.385,44.286 L99.385,36.698 L91.792,36.698 L91.792,25.952 L91.792,25.952 Z"/>
      </g>
   </defs>
   <path id="base" fill="#000" d="M8.5,150 H291.5 V250 C291.5,273.5 273.5,291.5 250,291.5 H50 C26.5,291.5 8.5,273.5 8.5,250 Z"/>
   <g stroke-width="38.0086" stroke="#000">
     <g id="svgstar" transform="translate(150, 150)">
       <path id="svgbar" fill="#ffb13b" d="M-84.1487,-15.8513 a22.4171,22.4171 0 1 0 0,31.7026 h168.2974 a22.4171,22.4171 0 1 0 0,-31.7026 Z"/>
       <use xlink:href="#svgbar" transform="rotate(45)"/>
       <use xlink:href="#svgbar" transform="rotate(90)"/>
       <use xlink:href="#svgbar" transform="rotate(135)"/>
     </g>
   </g>
   <use xlink:href="#svgstar"/>
   <use xlink:href="#base" opacity="0.85"/>
   <use xlink:href="#SVG"/>
</svg>
